X:34
T:The Catnip Lady from Lubbock
R:double jig
C: 1978, 2010 L.E. McCullough  
M:6/8
L:1/8
K:D
~D3 DFG|~A3 dAF|~E3 EDE|~F3 AFE|
~D3 DFG|~A3 dAF|~A3 dfe|edc d3:|
|:~f3~e3|dfe dBA|FAd faf|edB ~e3|
~f3 ede|fdB AFA|Bde faf|edc ~d3:|
 

